;FLAVOR:Marlin
;TIME:6169
;Filament used: 4.91863m
;Layer height: 0.2
;MINX:80
;MINY:77.5
;MINZ:0.2
;MAXX:140
;MAXY:142.5
;MAXZ:12
;Generated with Cura_SteamEngine 4.4.0
M140 S90
M105
M190 S90
M104 S215
M105
M109 S215
M82 ;absolute extrusion mode
M201 X500.00 Y500.00 Z100.00 E5000.00 ;Setup machine max acceleration
M203 X500.00 Y500.00 Z10.00 E50.00 ;Setup machine max feedrate
M204 P500.00 R1000.00 T500.00 ;Setup Print/Retract/Travel acceleration
M205 X8.00 Y8.00 Z0.40 E5.00 ;Setup Jerk
M220 S100 ;Reset Feedrate
M221 S100 ;Reset Flowrate

G28 ;Home

G92 E0 ;Reset Extruder
G1 Z2.0 F3000 ;Move Z Axis up
G1 X10.1 Y20 Z0.28 F5000.0 ;Move to start position
G1 X10.1 Y200.0 Z0.28 F1500.0 E15 ;Draw the first line
G1 X10.4 Y200.0 Z0.28 F5000.0 ;Move to side a little
G1 X10.4 Y20 Z0.28 F1500.0 E30 ;Draw the second line
G92 E0 ;Reset Extruder
G1 Z2.0 F3000 ;Move Z Axis up

G92 E0
G92 E0
G1 F1500 E-6.5
;LAYER_COUNT:60
;LAYER:0
M107
G0 F7500 X83.683 Y81.437 Z0.2
;TYPE:SKIRT
G1 F1500 E0
G1 X83.895 Y81.225 E0.00997
G1 X84.247 Y80.892 E0.02609
G1 X84.472 Y80.691 E0.03612
G1 X84.842 Y80.381 E0.05218
G1 X85.086 Y80.189 E0.0625
G1 X85.474 Y79.903 E0.07854
G1 X85.715 Y79.736 E0.08829
G1 X86.121 Y79.472 E0.1044
G1 X86.374 Y79.318 E0.11425
G1 X86.794 Y79.079 E0.13032
G1 X87.081 Y78.928 E0.14111
G1 X87.517 Y78.716 E0.15723
G1 X87.762 Y78.605 E0.16618
G1 X88.206 Y78.418 E0.1822
G1 X88.516 Y78.299 E0.19324
G1 X88.974 Y78.141 E0.20936
G1 X89.244 Y78.057 E0.21876
G1 X89.707 Y77.926 E0.23477
G1 X90.014 Y77.849 E0.24529
G1 X90.487 Y77.747 E0.26139
G1 X90.778 Y77.694 E0.27123
G1 X91.257 Y77.62 E0.28735
G1 X91.565 Y77.582 E0.29767
G1 X92.046 Y77.538 E0.31373
G1 X92.335 Y77.52 E0.32336
G1 X92.817 Y77.504 E0.3394
G1 X92.983 Y77.501 E0.34493
G1 X126.999 Y77.5 E1.4763
G1 X127.149 Y77.502 E1.48129
G1 X127.615 Y77.516 E1.4968
G1 X127.9 Y77.533 E1.5063
G1 X128.381 Y77.575 E1.52235
G1 X128.689 Y77.612 E1.53267
G1 X129.168 Y77.684 E1.54878
G1 X129.467 Y77.738 E1.55889
G1 X129.941 Y77.839 E1.57501
G1 X130.226 Y77.908 E1.58476
G1 X130.691 Y78.036 E1.6008
G1 X130.985 Y78.127 E1.61104
G1 X131.443 Y78.284 E1.62714
G1 X131.736 Y78.395 E1.63756
G1 X132.18 Y78.579 E1.65355
G1 X132.432 Y78.691 E1.66272
G1 X132.869 Y78.901 E1.67885
G1 X133.16 Y79.053 E1.68976
G1 X133.58 Y79.29 E1.7058
G1 X133.829 Y79.441 E1.71549
G1 X134.236 Y79.703 E1.73159
G1 X134.478 Y79.869 E1.74135
G1 X134.867 Y80.153 E1.75737
G1 X135.12 Y80.35 E1.76803
G1 X135.492 Y80.66 E1.78414
G1 X135.711 Y80.853 E1.79385
G1 X136.063 Y81.183 E1.8099
G1 X136.275 Y81.395 E1.81987
G1 X136.608 Y81.747 E1.83599
G1 X136.809 Y81.972 E1.84602
G1 X137.119 Y82.342 E1.86207
G1 X137.311 Y82.586 E1.8724
G1 X137.597 Y82.974 E1.88843
G1 X137.764 Y83.215 E1.89819
G1 X138.028 Y83.621 E1.91429
G1 X138.182 Y83.874 E1.92414
G1 X138.421 Y84.294 E1.94022
G1 X138.57 Y84.577 E1.95085
G1 X138.782 Y85.012 E1.96695
G1 X138.897 Y85.265 E1.97619
G1 X139.084 Y85.71 E1.99225
G1 X139.201 Y86.016 E2.00314
G1 X139.359 Y86.474 E2.01926
G1 X139.443 Y86.744 E2.02866
G1 X139.574 Y87.207 E2.04467
G1 X139.65 Y87.512 E2.05512
G1 X139.752 Y87.984 E2.07118
G1 X139.806 Y88.277 E2.08109
G1 X139.88 Y88.756 E2.09721
G1 X139.918 Y89.064 E2.10753
G1 X139.962 Y89.545 E2.1236
G1 X139.98 Y89.834 E2.13323
G1 X139.996 Y90.317 E2.1493
G1 X139.999 Y90.483 E2.15482
G1 X140 Y129.499 E3.4525
G1 X139.998 Y129.649 E3.45749
G1 X139.984 Y130.115 E3.473
G1 X139.967 Y130.4 E3.48249
G1 X139.925 Y130.881 E3.49855
G1 X139.888 Y131.189 E3.50887
G1 X139.816 Y131.668 E3.52498
G1 X139.762 Y131.967 E3.53509
G1 X139.661 Y132.441 E3.55121
G1 X139.592 Y132.726 E3.56096
G1 X139.464 Y133.191 E3.577
G1 X139.374 Y133.482 E3.58713
G1 X139.218 Y133.938 E3.60316
G1 X139.105 Y134.236 E3.61376
G1 X138.92 Y134.682 E3.62982
G1 X138.809 Y134.932 E3.63892
G1 X138.599 Y135.369 E3.65504
G1 X138.447 Y135.66 E3.66596
G1 X138.21 Y136.08 E3.682
G1 X138.061 Y136.327 E3.6916
G1 X137.8 Y136.733 E3.70765
G1 X137.631 Y136.979 E3.71758
G1 X137.346 Y137.369 E3.73364
G1 X137.15 Y137.62 E3.74424
G1 X136.84 Y137.992 E3.76034
G1 X136.647 Y138.211 E3.77005
G1 X136.317 Y138.563 E3.7861
G1 X136.105 Y138.775 E3.79607
G1 X135.753 Y139.108 E3.81219
G1 X135.528 Y139.309 E3.82222
G1 X135.158 Y139.619 E3.83828
G1 X134.914 Y139.811 E3.8486
G1 X134.526 Y140.097 E3.86463
G1 X134.285 Y140.264 E3.87439
G1 X133.879 Y140.528 E3.89049
G1 X133.626 Y140.682 E3.90034
G1 X133.206 Y140.921 E3.91642
G1 X132.919 Y141.072 E3.9272
G1 X132.483 Y141.284 E3.94333
G1 X132.238 Y141.395 E3.95227
G1 X131.794 Y141.582 E3.9683
G1 X131.484 Y141.701 E3.97934
G1 X131.026 Y141.859 E3.99546
G1 X130.756 Y141.943 E4.00486
G1 X130.293 Y142.074 E4.02087
G1 X129.986 Y142.151 E4.03139
G1 X129.513 Y142.253 E4.04749
G1 X129.222 Y142.306 E4.05732
G1 X128.743 Y142.38 E4.07344
G1 X128.435 Y142.418 E4.08377
G1 X127.954 Y142.462 E4.09983
G1 X127.665 Y142.48 E4.10946
G1 X127.183 Y142.496 E4.1255
G1 X127.017 Y142.499 E4.13102
G1 X93.001 Y142.5 E5.2624
G1 X92.851 Y142.498 E5.26739
G1 X92.385 Y142.484 E5.2829
G1 X92.1 Y142.467 E5.29239
G1 X91.619 Y142.425 E5.30845
G1 X91.311 Y142.388 E5.31877
G1 X90.832 Y142.316 E5.33488
G1 X90.533 Y142.262 E5.34499
G1 X90.059 Y142.161 E5.36111
G1 X89.774 Y142.092 E5.37086
G1 X89.309 Y141.964 E5.3869
G1 X89.015 Y141.873 E5.39714
G1 X88.557 Y141.716 E5.41324
G1 X88.264 Y141.605 E5.42366
G1 X87.82 Y141.421 E5.43965
G1 X87.568 Y141.309 E5.44882
G1 X87.131 Y141.099 E5.46494
G1 X86.84 Y140.947 E5.47586
G1 X86.42 Y140.71 E5.4919
G1 X86.171 Y140.559 E5.50159
G1 X85.764 Y140.297 E5.51769
G1 X85.52 Y140.13 E5.52752
G1 X85.13 Y139.845 E5.54359
G1 X84.88 Y139.65 E5.55413
G1 X84.509 Y139.341 E5.57019
G1 X84.289 Y139.146 E5.57997
G1 X83.936 Y138.815 E5.59606
G1 X83.724 Y138.604 E5.60601
G1 X83.392 Y138.253 E5.62208
G1 X83.192 Y138.029 E5.63207
G1 X82.881 Y137.658 E5.64817
G1 X82.688 Y137.413 E5.65855
G1 X82.402 Y137.025 E5.67458
G1 X82.234 Y136.781 E5.68443
G1 X81.971 Y136.376 E5.70049
G1 X81.818 Y136.126 E5.71024
G1 X81.579 Y135.706 E5.72631
G1 X81.428 Y135.419 E5.7371
G1 X81.216 Y134.983 E5.75322
G1 X81.105 Y134.738 E5.76217
G1 X80.918 Y134.294 E5.77819
G1 X80.799 Y133.984 E5.78924
G1 X80.641 Y133.526 E5.80535
G1 X80.557 Y133.256 E5.81476
G1 X80.426 Y132.793 E5.83076
G1 X80.349 Y132.486 E5.84129
G1 X80.247 Y132.013 E5.85738
G1 X80.194 Y131.722 E5.86722
G1 X80.12 Y131.243 E5.88334
G1 X80.082 Y130.935 E5.89366
G1 X80.038 Y130.454 E5.90973
G1 X80.02 Y130.165 E5.91936
G1 X80.004 Y129.683 E5.9354
G1 X80.001 Y129.517 E5.94092
G1 X80 Y90.501 E7.2386
G1 X80.002 Y90.351 E7.24359
G1 X80.016 Y89.885 E7.25909
G1 X80.033 Y89.6 E7.26859
G1 X80.075 Y89.119 E7.28465
G1 X80.112 Y88.811 E7.29497
G1 X80.184 Y88.332 E7.31108
G1 X80.238 Y88.033 E7.32118
G1 X80.339 Y87.559 E7.3373
G1 X80.408 Y87.274 E7.34705
G1 X80.536 Y86.809 E7.3631
G1 X80.626 Y86.518 E7.37323
G1 X80.782 Y86.062 E7.38926
G1 X80.895 Y85.764 E7.39986
G1 X81.08 Y85.318 E7.41592
G1 X81.191 Y85.068 E7.42501
G1 X81.401 Y84.631 E7.44114
G1 X81.553 Y84.34 E7.45206
G1 X81.79 Y83.92 E7.4681
G1 X81.939 Y83.673 E7.47769
G1 X82.2 Y83.267 E7.49375
G1 X82.369 Y83.021 E7.50367
G1 X82.654 Y82.631 E7.51974
G1 X82.85 Y82.38 E7.53033
G1 X83.16 Y82.008 E7.54644
G1 X83.353 Y81.789 E7.55615
G1 X83.683 Y81.437 E7.57219
G0 F7500 X83.975 Y81.711
G1 F1500 X84.17 Y81.515 E7.58139
G1 X84.522 Y81.182 E7.59751
G1 X84.729 Y80.998 E7.60672
G1 X85.099 Y80.688 E7.62277
G1 X85.324 Y80.511 E7.63229
G1 X85.712 Y80.225 E7.64833
G1 X85.933 Y80.072 E7.65727
G1 X86.339 Y79.808 E7.67337
G1 X86.572 Y79.666 E7.68245
G1 X86.992 Y79.427 E7.69852
G1 X87.255 Y79.288 E7.70842
G1 X87.691 Y79.076 E7.72454
G1 X87.918 Y78.974 E7.73282
G1 X88.362 Y78.787 E7.74884
G1 X88.647 Y78.677 E7.759
G1 X89.105 Y78.519 E7.77512
G1 X89.353 Y78.442 E7.78375
G1 X89.816 Y78.311 E7.79976
G1 X90.098 Y78.24 E7.80943
G1 X90.571 Y78.138 E7.82552
G1 X90.839 Y78.089 E7.83458
G1 X91.318 Y78.015 E7.8507
G1 X91.601 Y77.98 E7.86019
G1 X92.082 Y77.936 E7.87625
G1 X92.348 Y77.92 E7.88512
G1 X92.83 Y77.904 E7.90116
G1 X92.983 Y77.901 E7.90625
G1 X126.999 Y77.9 E9.03762
G1 X127.137 Y77.902 E9.04221
G1 X127.603 Y77.916 E9.05772
G1 X127.865 Y77.931 E9.06645
G1 X128.346 Y77.973 E9.08251
G1 X128.63 Y78.007 E9.09202
G1 X129.109 Y78.079 E9.10813
G1 X129.384 Y78.129 E9.11743
G1 X129.858 Y78.23 E9.13355
G1 X130.12 Y78.294 E9.14252
G1 X130.585 Y78.422 E9.15856
G1 X130.856 Y78.506 E9.168
G1 X131.314 Y78.663 E9.1841
G1 X131.583 Y78.764 E9.19366
G1 X132.027 Y78.948 E9.20964
G1 X132.258 Y79.052 E9.21807
G1 X132.695 Y79.262 E9.23419
G1 X132.964 Y79.402 E9.24428
G1 X133.384 Y79.639 E9.26032
G1 X133.613 Y79.777 E9.26921
G1 X134.02 Y80.039 E9.28531
G1 X134.242 Y80.192 E9.29428
G1 X134.631 Y80.476 E9.3103
G1 X134.864 Y80.657 E9.32011
G1 X135.236 Y80.967 E9.33622
G1 X135.437 Y81.145 E9.34515
G1 X135.789 Y81.475 E9.36119
G1 X135.985 Y81.67 E9.37039
G1 X136.318 Y82.022 E9.38651
G1 X136.502 Y82.229 E9.39572
G1 X136.812 Y82.599 E9.41177
G1 X136.989 Y82.824 E9.42129
G1 X137.275 Y83.212 E9.43733
G1 X137.428 Y83.433 E9.44627
G1 X137.692 Y83.839 E9.46237
G1 X137.834 Y84.072 E9.47145
G1 X138.073 Y84.492 E9.48752
G1 X138.21 Y84.752 E9.4973
G1 X138.422 Y85.187 E9.51339
G1 X138.528 Y85.42 E9.5219
G1 X138.715 Y85.865 E9.53796
G1 X138.823 Y86.147 E9.548
G1 X138.981 Y86.605 E9.56412
G1 X139.058 Y86.853 E9.57275
G1 X139.189 Y87.316 E9.58876
G1 X139.259 Y87.596 E9.59836
G1 X139.361 Y88.068 E9.61442
G1 X139.411 Y88.338 E9.62355
G1 X139.485 Y88.817 E9.63967
G1 X139.52 Y89.1 E9.64916
G1 X139.564 Y89.581 E9.66522
G1 X139.58 Y89.848 E9.67412
G1 X139.596 Y90.331 E9.69019
G1 X139.599 Y90.483 E9.69525
G1 X139.6 Y129.499 E10.99293
G1 X139.598 Y129.637 E10.99752
G1 X139.584 Y130.103 E11.01302
G1 X139.569 Y130.365 E11.02175
G1 X139.527 Y130.846 E11.03781
G1 X139.493 Y131.13 E11.04732
G1 X139.421 Y131.609 E11.06343
G1 X139.371 Y131.884 E11.07273
G1 X139.27 Y132.358 E11.08885
G1 X139.206 Y132.62 E11.09782
G1 X139.078 Y133.085 E11.11386
G1 X138.995 Y133.353 E11.12319
G1 X138.839 Y133.809 E11.13922
G1 X138.736 Y134.082 E11.14893
G1 X138.551 Y134.528 E11.16499
G1 X138.448 Y134.758 E11.17337
G1 X138.238 Y135.195 E11.18949
G1 X138.098 Y135.464 E11.19958
G1 X137.861 Y135.884 E11.21562
G1 X137.724 Y136.11 E11.22441
G1 X137.463 Y136.516 E11.24046
G1 X137.308 Y136.743 E11.24961
G1 X137.023 Y137.133 E11.26567
G1 X136.843 Y137.364 E11.27541
G1 X136.533 Y137.736 E11.29152
G1 X136.355 Y137.937 E11.30045
G1 X136.025 Y138.289 E11.31649
G1 X135.83 Y138.485 E11.32569
G1 X135.478 Y138.818 E11.34181
G1 X135.271 Y139.002 E11.35102
G1 X134.901 Y139.312 E11.36707
G1 X134.676 Y139.489 E11.37659
G1 X134.288 Y139.775 E11.39263
G1 X134.067 Y139.928 E11.40157
G1 X133.661 Y140.192 E11.41767
G1 X133.428 Y140.334 E11.42675
G1 X133.008 Y140.573 E11.44282
G1 X132.745 Y140.712 E11.45272
G1 X132.309 Y140.924 E11.46884
G1 X132.082 Y141.026 E11.47712
G1 X131.638 Y141.213 E11.49314
G1 X131.353 Y141.323 E11.5033
G1 X130.895 Y141.481 E11.51942
G1 X130.647 Y141.558 E11.52805
G1 X130.184 Y141.689 E11.54406
G1 X129.902 Y141.76 E11.55373
G1 X129.429 Y141.862 E11.56982
G1 X129.161 Y141.911 E11.57889
G1 X128.682 Y141.985 E11.59501
G1 X128.399 Y142.02 E11.60449
G1 X127.918 Y142.064 E11.62055
G1 X127.652 Y142.08 E11.62942
G1 X127.17 Y142.096 E11.64546
G1 X127.017 Y142.099 E11.65055
G1 X93.001 Y142.1 E12.78192
G1 X92.863 Y142.098 E12.78652
G1 X92.397 Y142.084 E12.80202
G1 X92.135 Y142.069 E12.81075
G1 X91.654 Y142.027 E12.82681
G1 X91.37 Y141.993 E12.83632
G1 X90.891 Y141.921 E12.85243
G1 X90.616 Y141.871 E12.86173
G1 X90.142 Y141.77 E12.87785
G1 X89.88 Y141.706 E12.88682
G1 X89.415 Y141.578 E12.90286
G1 X89.144 Y141.494 E12.9123
G1 X88.686 Y141.337 E12.9284
G1 X88.417 Y141.236 E12.93796
G1 X87.973 Y141.052 E12.95394
G1 X87.742 Y140.948 E12.96237
G1 X87.305 Y140.738 E12.97849
G1 X87.036 Y140.598 E12.98858
G1 X86.616 Y140.361 E13.00462
G1 X86.387 Y140.223 E13.01351
G1 X85.98 Y139.961 E13.02961
G1 X85.756 Y139.807 E13.03865
G1 X85.366 Y139.522 E13.05472
G1 X85.136 Y139.343 E13.06441
G1 X84.765 Y139.034 E13.08047
G1 X84.563 Y138.855 E13.08945
G1 X84.21 Y138.524 E13.10554
G1 X84.014 Y138.329 E13.11474
G1 X83.682 Y137.978 E13.13081
G1 X83.499 Y137.772 E13.13997
G1 X83.188 Y137.401 E13.15607
G1 X83.01 Y137.175 E13.16564
G1 X82.724 Y136.787 E13.18167
G1 X82.569 Y136.563 E13.19073
G1 X82.306 Y136.158 E13.2068
G1 X82.166 Y135.928 E13.21575
G1 X81.927 Y135.508 E13.23182
G1 X81.788 Y135.245 E13.24172
G1 X81.576 Y134.809 E13.25784
G1 X81.474 Y134.582 E13.26612
G1 X81.287 Y134.138 E13.28214
G1 X81.177 Y133.853 E13.2923
G1 X81.019 Y133.395 E13.30842
G1 X80.942 Y133.147 E13.31706
G1 X80.811 Y132.684 E13.33306
G1 X80.74 Y132.402 E13.34273
G1 X80.638 Y131.929 E13.35883
G1 X80.589 Y131.661 E13.36789
G1 X80.515 Y131.182 E13.38401
G1 X80.48 Y130.899 E13.39349
G1 X80.436 Y130.418 E13.40956
G1 X80.42 Y130.152 E13.41842
G1 X80.404 Y129.67 E13.43446
G1 X80.401 Y129.517 E13.43955
G1 X80.4 Y90.501 E14.73723
G1 X80.402 Y90.363 E14.74182
G1 X80.416 Y89.897 E14.75732
G1 X80.431 Y89.635 E14.76605
G1 X80.473 Y89.154 E14.78211
G1 X80.507 Y88.87 E14.79162
G1 X80.579 Y88.391 E14.80774
G1 X80.629 Y88.116 E14.81703
G1 X80.73 Y87.642 E14.83315
G1 X80.794 Y87.38 E14.84212
G1 X80.922 Y86.915 E14.85816
G1 X81.005 Y86.647 E14.86749
G1 X81.161 Y86.191 E14.88352
G1 X81.264 Y85.918 E14.89323
G1 X81.449 Y85.472 E14.90929
G1 X81.552 Y85.242 E14.91767
G1 X81.762 Y84.805 E14.9338
G1 X81.902 Y84.536 E14.94388
G1 X82.139 Y84.116 E14.95992
G1 X82.276 Y83.89 E14.96871
G1 X82.537 Y83.484 E14.98476
G1 X82.692 Y83.257 E14.99391
G1 X82.977 Y82.867 E15.00997
G1 X83.157 Y82.636 E15.01971
G1 X83.467 Y82.264 E15.03582
G1 X83.645 Y82.063 E15.04475
G1 X83.975 Y81.711 E15.0608
G0 F7500 X84.267 Y81.984
G1 F1500 X84.445 Y81.806 E15.06917
G1 X84.797 Y81.473 E15.08529
G1 X84.986 Y81.305 E15.0937
G1 X85.356 Y80.995 E15.10975
G1 X85.561 Y80.833 E15.11844
G1 X85.949 Y80.547 E15.13447
G1 X86.151 Y80.407 E15.14265
G1 X86.557 Y80.143 E15.15875
G1 X86.77 Y80.014 E15.16704
G1 X87.19 Y79.775 E15.18311
G1 X87.43 Y79.648 E15.19214
G1 X87.866 Y79.436 E15.20827
G1 X88.073 Y79.342 E15.21583
G1 X88.517 Y79.155 E15.23185
G1 X88.777 Y79.056 E15.2411
G1 X89.235 Y78.898 E15.25722
G1 X89.462 Y78.827 E15.26513
G1 X89.925 Y78.696 E15.28113
G1 X90.183 Y78.631 E15.28998
G1 X90.656 Y78.529 E15.30608
G1 X90.9 Y78.484 E15.31433
G1 X91.379 Y78.41 E15.33045
G1 X91.637 Y78.378 E15.3391
G1 X92.118 Y78.334 E15.35516
G1 X92.362 Y78.319 E15.36329
G1 X92.844 Y78.303 E15.37933
G1 X92.983 Y78.301 E15.38396
G1 X126.999 Y78.3 E16.51533
G1 X127.125 Y78.302 E16.51952
G1 X127.591 Y78.316 E16.53503
G1 X127.83 Y78.33 E16.54299
G1 X128.311 Y78.372 E16.55905
G1 X128.57 Y78.403 E16.56773
G1 X129.049 Y78.475 E16.58384
G1 X129.3 Y78.52 E16.59232
G1 X129.774 Y78.621 E16.60844
G1 X130.014 Y78.68 E16.61666
G1 X130.479 Y78.808 E16.6327
G1 X130.726 Y78.884 E16.6413
G1 X131.184 Y79.041 E16.6574
G1 X131.43 Y79.134 E16.66615
G1 X131.874 Y79.318 E16.68213
G1 X132.085 Y79.412 E16.68981
G1 X132.522 Y79.622 E16.70594
G1 X132.767 Y79.75 E16.71513
G1 X133.187 Y79.987 E16.73117
G1 X133.396 Y80.113 E16.73929
G1 X133.803 Y80.375 E16.75539
G1 X134.007 Y80.515 E16.76362
G1 X134.396 Y80.799 E16.77964
G1 X134.608 Y80.964 E16.78857
G1 X134.98 Y81.274 E16.80468
G1 X135.164 Y81.437 E16.81285
G1 X135.516 Y81.767 E16.8289
G1 X135.694 Y81.945 E16.83728
G1 X136.027 Y82.297 E16.85339
G1 X136.195 Y82.486 E16.8618
G1 X136.505 Y82.856 E16.87786
G1 X136.667 Y83.061 E16.88655
G1 X136.953 Y83.449 E16.90258
G1 X137.093 Y83.651 E16.91075
G1 X137.357 Y84.057 E16.92686
G1 X137.486 Y84.27 E16.93514
G1 X137.725 Y84.69 E16.95122
G1 X137.85 Y84.927 E16.96013
G1 X138.062 Y85.362 E16.97622
G1 X138.159 Y85.575 E16.98401
G1 X138.346 Y86.02 E17.00006
G1 X138.444 Y86.277 E17.00921
G1 X138.602 Y86.735 E17.02532
G1 X138.673 Y86.962 E17.03323
G1 X138.804 Y87.425 E17.04924
G1 X138.868 Y87.681 E17.05802
G1 X138.97 Y88.153 E17.07408
G1 X139.016 Y88.399 E17.0824
G1 X139.09 Y88.878 E17.09852
G1 X139.122 Y89.136 E17.10717
G1 X139.166 Y89.617 E17.12323
G1 X139.181 Y89.861 E17.13136
G1 X139.197 Y90.344 E17.14744
G1 X139.199 Y90.483 E17.15206
G1 X139.2 Y129.499 E18.44974
G1 X139.198 Y129.625 E18.45393
